X: 1
T: Tom McKerron
T: McLaine of Lochbuie
T: The High Drive
C:Charlie McKerron/Anon/Gordon Duncan
N:3 Scots reels/3 reels écossais
S:Dominique Renaudin <domren:free.fr> IrishTradAccord 2004-3-1
%Q:1/4=220
R:reel
P: AAABBBCCC
M:4/4
L:1/8
K:A
P: A
ga |\
ec (3ccc BcAF | EC (3CCC B,CA,B, |\
C2 EC FCEC | DF AF EGBG |\
ec (3ccc BcAF |
EC (3CCC B,CA,B, |\
C2 EC DFAF | EGBG A2 :: eg |\
g a2 a feec | A2 A2 FEEe |
ae (3eee feec | Bcec B2 ce |\
g a2 a feec | A2 A2 FE E2 |\
C2 EC DFAF | EGBG A2 :| AB ||
P: B
K:D
|:\
e2 de AAAB | g2 fg BGBd |\
e2 de edea |1 gedB BAAA :|2 gedB A3 e ::\
a2 ag aeef | gage fdcd |
eaag aeea | gedB BAAA |\
a2 ag aeef | gage fdcd |\
g2 ag geea | gedB A4 |:
P: C
d3 e fedA | (3BBB gB BAGB |\
GA (3AAA fedf | eA (3AAA afge |\
d3 e fedA |
(3BBB gB BAGB |\
GA (3AAA fedf | edce d4 ::\
a3 g ad (3ddd | AB (3BBB gBdB |
GA (3AAA fedf | eA (3AAA efge |\
a3 g ad (3ddd | AB (3BBB gBdB |\
GA (3AAA fedf | edce d4 :|
